X:1
T: Charlie Stuart
C:
R:Reel
Q: 232
K:D
M:4/4
L:1/8
|: B |\
AF ED G2-GB | AF ED E3B | AF ED GA Bd | AG FE D3B | 
AF ED G2-GB | AF ED E3B | AF ED GA Bd | AG FE D3A | 
de fd gf ec | de fd ec BA | de fd gf eg | f1/2g1/2a ef d2-df | 
de fd gf ec | de fd ec BA | de fd gf eg | fa Ac d2-d :| 
